X: 20923
M: 2/4
L: 1/16
K: F
V: 1 name="3"
z2 |\
c2 |\
f4 agfe | d2g2 b4 | bagf edcB | ABcB A2F2 |\
f4 agfe | d2g2 b4 | bagf efge | f2f2"^D.C."f2 |]
d2fe defg | a2a2b2a2 | b2a2 bag | efgf e2c2 |\
d2fe defg | a2a2b2a2 | b2a2 agfe | f2f2"^D.C."f2 |]


